X:1
T:James Gibb editions
T:Vere languores nostros - Lotti
%%score { 1 | 2 } 3
L:1/8
Q:1/4=90
M:4/4
K:F
V:1 treble nm="Alto I" snm="A"
V:2 treble 
V:3 treble-8 nm="Tenor" snm="T"
V:1
"^Vere languores nostros" A8 | A2 A2 A4 | A4 (A4- | A2 G2)[Q:1/4=60] !fermata!A4 | %4
w: Ve-|re lan- guo-|res nos\-|* * tros,|
"^Antonio Lotti\n(1667-1740)"[Q:1/4=90] A8 | A6 c2 | d2 c2 (d3 c | B4) A2 c2- | %8
w: ve-|re lan-|guo- res nos\- *|* tros i\-|
[M:4/4] c2 c2 c2 c2 | (c2 =B2) c2 G2 | A4 G2 G2 | G2 G2 c4 | =B2 B4 B2 | c4 G2 c2 | c2 c2 c4 | %15
w: * pse, i- pse|tu\- * lit, lan-|guo- res, lan-|guo- res nos-|tros i- pse|tu- lit, lan-|guo- res nos-|
 c2 A4 B2 | (G2 A2 G4) | A2 c4 B2 | A6 A2 | B4 B2 B2 | B6 B2 | A4 A4 | A4 A2 A2 | B4 B4 | %24
w: tros i- pse|tu- * *|lit, et do-|lo- res|nos- tros, do-|lo- res|nos- tros|i- pse por-|ta- vit,|
 G4 G2 G2 | A4 A4 | A6 A2 | (G4 A2) B2 | (B2 AG A4- | A2 G2) A4 | A4 A2 A2 | (A4 B4 | A8) | %33
w: i- pse por-|ta- vit,|et do-|lo\- * res|nos\- * * *|* * tros|i- pse por-|ta\- *||
"^rall."[Q:1/4=89] A2[Q:1/4=87] B2[Q:1/4=85] B2[Q:1/4=84] A2 |[Q:1/4=82] B8[Q:1/4=79] | %35
w: vit, i- pse por-|ta-|
[Q:1/4=77] !fermata!A8[Q:1/4=76][Q:1/4=75][Q:1/4=75] |] %36
w: vit.|
V:2
 F8 | E6 E2 | F2 E2 (F3 E | D4) !fermata!^C4 | =C8 | C2 C2 F4 | F4 (F4- | F2 E2) F2 A2- | %8
w: Ve-|re lan-|guo- res nos\- *|* tros,|ve-|re lan- guo-|res nos\-|* * tros i\-|
[M:4/4] A2 G2 A2 G2 | F4 E2 E2 | F4 E2 E2 | D2 E2 (E2 ^F2) | G2 D4 D2 | E4 E2 G2 | A2 G2 A4 | %15
w: * pse, i- pse|tu- lit, lan-|guo- res, lan-|guo- res nos\- *|tros i- pse|tu- lit, lan-|guo- res nos-|
 G2 F4 D2 | (E2 F4 E2) | F2 A4 G2 | ^F6 F2 | G4 G2 G2 | G6 G2 | (G2 ^FE) F4 | ^F4 F2 F2 | G4 G4 | %24
w: tros i- pse|tu\- * *|lit, et do-|lo- res|nos- tros, do-|lo- res|nos\- * * tros|i- pse por-|ta- vit,|
 E4 E2 E2 | F4 F4 | C6 F2 | (E4 F2) G2 | (G2 FE F2 E2 | D4) ^C4 | ^C4 E2 E2 | (F4 G4 | E2 F2 E4) | %33
w: i- pse por-|ta- vit,|et do-|lo\- * res|nos\- * * * *|* tros|i- pse por-|ta\- *||
"^rall." F2 D2 D2 D2 | (D4 G4- | G2 ^FE) !fermata!F4 |] %36
w: vit, i- pse por-|ta\- *|* * * vit.|
V:3
 d8 | A6 A2 | d2 ^c2 (d3 =c | B4) !fermata!A4 | F8 | F6 A2 | B2 A2 (B3 A | G4) F2 f2- | %8
w: Ve-|re lan-|guo- res nos\- *|* tros,|ve-|re lan-|guo- res nos\- *|* tros i-|
[M:4/4][K:treble-8] f2 e2 f2 e2 | d4 c2 c2 | =B4 c2 c2 | =B2 c2 A4 | G2 G4 G2 | c4 c2 e2 | %14
w: * pse, i- pse|tu- lit, lan-|guo- res, lan-|guo- res nos-|tros i- pse|tu- lit, lan-|
 f2 e2 f4 | c2 d4 B2 | c8 | F4 z4 | z2 d2 d2 c2 | B4 G4 | z2 _e2 d2 ^c2 | d4 d4 | d4 d2 d2 | %23
w: guo- res nos-|tros i- pse|tu-|lit,|do- lo- res|nos- tros,|do- lo- res|nos- tros|i- pse por-|
 g4 G4 | c4 c2 c2 | f4 F4 | F6 F2 | c6 ^c2 | (d6 c2 | B4) A4 | A4 ^c2 A2 | (d=cBA GABG | %32
w: ta- vit,|i- pse por-|ta- vit,|et do-|lo- res|nos\- *|* tros|i- pse por-|ta\- * * * * * * *|
 A2 d4 ^c2) |"^rall." d2 G2 G2 ^F2 | G8 | !fermata!D8 |] %36
w: |vit, i- pse por-|ta-|vit.|

